img/foundation-icons/fi-social-spotify.svg

<svg xmlns="http://www.w3.org/2000/svg" width="100" height="100" viewBox="0 0 100 100"><path d="M50 11c-21.54 0-39 17.46-39 39 0 10.157 3.886 19.407 10.25 26.345a30.148 30.148 0 0 1 9.01-6.986 29.96 29.96 0 0 1 13.665-3.263 30.187 30.187 0 0 1 20.51 8.014 30.194 30.194 0 0 1 6.56 8.75C81.817 75.93 89 63.81 89 50c0-21.54-17.46-39-39-39zm18.467 54.146a2.598 2.598 0 0 1-3.618.654 36.167 36.167 0 0 0-20.71-6.475c-4.306 0-8.52.744-12.52 2.21a2.597 2.597 0 0 1-3.337-1.546 2.6 2.6 0 0 1 1.547-3.337 41.438 41.438 0 0 1 14.31-2.525c8.505 0 16.692 2.56 23.672 7.398a2.602 2.602 0 0 1 .655 3.62zm5.673-11.993a2.92 2.92 0 0 1-4.03.93 48.95 48.95 0 0 0-25.97-7.432 48.96 48.96 0 0 0-15.006 2.343 2.927 2.927 0 0 1-1.787-5.574A54.95 54.95 0 0 1 44.14 40.8c10.31 0 20.36 2.88 29.07 8.322a2.925 2.925 0 0 1 .93 4.03zm2.864-10.402a3.23 3.23 0 0 1-1.643-.448 61.707 61.707 0 0 0-31.222-8.47c-5.94 0-11.82.85-17.48 2.517a3.25 3.25 0 0 1-1.837-6.236 68.37 68.37 0 0 1 19.317-2.78c12.15 0 24.085 3.238 34.514 9.365a3.25 3.25 0 0 1-1.648 6.05zM54.908 84.444a16.157 16.157 0 0 0-10.983-4.293c-2.57 0-5.03.587-7.312 1.747a16.116 16.116 0 0 0-4.085 2.97A38.83 38.83 0 0 0 49.998 89c2.71 0 5.354-.276 7.908-.804a16.136 16.136 0 0 0-2.998-3.752z"/></svg>

<?xml version="1.0" encoding="utf-8"?>
<!-- Generator: Adobe Illustrator 17.0.0, SVG Export Plug-In . SVG Version: 6.00 Build 0)  -->
<!DOCTYPE svg PUBLIC "-//W3C//DTD SVG 1.1//EN" "http://www.w3.org/Graphics/SVG/1.1/DTD/svg11.dtd">
<svg version="1.1" id="Layer_1" xmlns="http://www.w3.org/2000/svg" xmlns:xlink="http://www.w3.org/1999/xlink" x="0px" y="0px"
	 width="100px" height="100px" viewBox="0 0 100 100" enable-background="new 0 0 100 100" xml:space="preserve">
<g>
	<path d="M49.999,10.999C28.461,10.999,11,28.46,11,49.999c0,10.158,3.886,19.408,10.249,26.346
		c2.549-2.887,5.569-5.242,9.011-6.986c4.271-2.164,8.868-3.262,13.665-3.262c7.622,0,14.906,2.848,20.511,8.014
		c2.714,2.504,4.91,5.449,6.558,8.75C81.818,75.929,89,63.808,89,49.999C89,28.46,71.539,10.999,49.999,10.999z M68.467,65.146
		c-0.505,0.727-1.315,1.117-2.139,1.117c-0.511,0-1.027-0.15-1.479-0.463c-6.106-4.236-13.268-6.475-20.71-6.475
		c-4.305,0-8.518,0.744-12.52,2.211c-1.349,0.496-2.842-0.197-3.336-1.547c-0.495-1.348,0.198-2.842,1.547-3.336
		c4.577-1.678,9.392-2.525,14.309-2.525c8.506,0,16.693,2.559,23.673,7.398C68.992,62.345,69.285,63.964,68.467,65.146z
		 M74.14,53.153c-0.555,0.889-1.508,1.375-2.483,1.375c-0.529,0-1.065-0.143-1.547-0.445c-7.779-4.861-16.759-7.432-25.971-7.432
		c-5.119,0-10.167,0.787-15.005,2.342c-1.539,0.49-3.185-0.355-3.679-1.894c-0.493-1.539,0.354-3.186,1.892-3.68
		c5.417-1.736,11.067-2.619,16.793-2.619c10.309,0,20.361,2.879,29.07,8.322C74.58,49.979,74.996,51.782,74.14,53.153z
		 M77.004,42.751c-0.56,0-1.126-0.145-1.643-0.449c-9.433-5.539-20.23-8.469-31.223-8.469c-5.94,0-11.821,0.848-17.481,2.516
		c-1.724,0.506-3.529-0.481-4.037-2.201c-0.506-1.723,0.478-3.529,2.2-4.035c6.257-1.842,12.756-2.779,19.318-2.779
		c12.149,0,24.085,3.238,34.514,9.365c1.548,0.908,2.065,2.9,1.157,4.447C79.204,42.177,78.118,42.751,77.004,42.751z"/>
	<path d="M54.908,84.444c-3.001-2.768-6.902-4.293-10.983-4.293c-2.569,0-5.029,0.586-7.312,1.746
		c-1.521,0.771-2.882,1.773-4.085,2.969c5.257,2.639,11.188,4.135,17.471,4.135c2.709,0,5.353-0.277,7.907-0.805
		C57.095,86.806,56.099,85.542,54.908,84.444z"/>
</g>
</svg>
